svgs/snapdrop.svg

<svg width="192" height="192" viewBox="0 0 192 192" fill="none" xmlns="http://www.w3.org/2000/svg">
<path d="M115.745 130.787C123.448 126.414 129.482 119.609 132.901 111.438C136.319 103.266 136.929 94.1914 134.634 85.6363C132.339 77.0812 127.27 69.5298 120.22 64.1665C113.171 58.8032 104.541 55.9313 95.684 56.0012C86.8267 56.0712 78.2432 59.0791 71.2796 64.5532C64.3161 70.0272 59.3664 77.6578 57.207 86.2481C55.0475 94.8383 55.8004 103.902 59.3476 112.019C62.8947 120.135 69.0355 126.844 76.8068 131.094L84.4841 117.057C79.8213 114.507 76.1368 110.481 74.0085 105.611C71.8802 100.741 71.4285 95.303 72.7242 90.1488C74.0199 84.9947 76.9896 80.4163 81.1678 77.1319C85.3459 73.8475 90.496 72.0427 95.8104 72.0007C101.125 71.9588 106.303 73.6819 110.532 76.8999C114.762 80.1179 117.804 84.6487 119.18 89.7818C120.557 94.9148 120.192 100.36 118.141 105.263C116.089 110.165 112.469 114.249 107.847 116.872L115.745 130.787Z" fill="black"/>
<path d="M135.491 165.574C150.897 156.829 162.965 143.218 169.802 126.875C176.639 110.533 177.858 92.3828 173.268 75.2727C168.678 58.1625 158.539 43.0597 144.441 32.333C130.342 21.6063 113.082 15.8625 95.368 16.0025C77.6534 16.1425 60.4863 22.1583 46.5592 33.1064C32.6321 44.0545 22.7328 59.3156 18.4139 76.4961C14.095 93.6767 15.6008 111.805 22.6951 128.037C29.7895 144.27 42.071 157.689 57.6136 166.189L65.2908 152.151C52.8568 145.351 43.0316 134.616 37.3561 121.63C31.6806 108.644 30.476 94.1414 33.9311 80.3969C37.3863 66.6525 45.3057 54.4436 56.4474 45.6851C67.5891 36.9266 81.3227 32.114 95.4944 32.002C109.666 31.89 123.474 36.4851 134.753 45.0664C146.031 53.6477 154.143 65.73 157.815 79.4181C161.486 93.1063 160.511 107.626 155.042 120.7C149.572 133.774 139.918 144.663 127.593 151.659L135.491 165.574Z" fill="black"/>
<circle cx="96" cy="96" r="13.3333" fill="black"/>
</svg>

<svg xmlns="http://www.w3.org/2000/svg" width="192" height="192" fill="#000" xmlns:v="https://vecta.io/nano"><path d="M115.745 130.787a40.01 40.01 0 0 0 17.156-19.349c3.418-8.172 4.028-17.247 1.733-25.802s-7.364-16.107-14.414-21.47a40 40 0 0 0-60.872 47.853 40 40 0 0 0 17.459 19.075l7.677-14.037A24 24 0 0 1 95.81 72.001a24 24 0 0 1 14.722 4.899 23.99 23.99 0 0 1 8.648 12.882 24 24 0 0 1-1.039 15.481c-2.052 4.902-5.672 8.986-10.294 11.609l7.898 13.915zm19.746 34.787a80 80 0 0 0 8.95-133.241A80 80 0 0 0 18.414 76.497a80 80 0 0 0 39.2 89.693l7.677-14.038A64 64 0 0 1 95.494 32.003a64 64 0 0 1 39.259 13.064c11.278 8.581 19.39 20.664 23.062 34.352a64.01 64.01 0 0 1-2.773 41.282c-5.47 13.074-15.124 23.963-27.449 30.959l7.898 13.915z"/><circle cx="96" cy="96" r="13.333"/></svg>
